images/btn/Shape.svg

<svg width="25" height="25" viewBox="0 0 25 25" fill="none" xmlns="http://www.w3.org/2000/svg">
<path fill-rule="evenodd" clip-rule="evenodd" d="M19.873 0H5.12695C2.29995 0 0 2.29995 0 5.12695V19.873C0 22.7 2.29995 25 5.12695 25H19.873C22.7 25 25 22.7 25 19.873V5.12695C25 2.29995 22.7 0 19.873 0ZM7.9252 19.5043C7.69913 19.9255 7.28753 20.1612 6.86487 20.1613C6.65767 20.1613 6.44789 20.1047 6.25594 19.9855C5.67243 19.623 5.47178 18.8175 5.80865 18.1897L6.04899 17.7419H8.871L7.9252 19.5043ZM5.21867 16.9355C4.56476 16.9355 4.03276 16.3989 4.03276 15.7394C4.03276 15.0799 4.56476 14.5434 5.21867 14.5434H7.5515L10.7513 8.95385L9.88409 7.43898C9.55716 6.86785 9.75184 6.13491 10.3181 5.80514H10.3182C10.8845 5.47541 11.6112 5.67185 11.9381 6.24294L12.1207 6.56181L12.3032 6.24299C12.6303 5.6718 13.357 5.47546 13.9232 5.80519C14.1975 5.96493 14.3937 6.22285 14.4757 6.53143C14.5577 6.84001 14.5156 7.16236 14.3572 7.43903L10.2902 14.5434H12.8556L14.225 16.9355H5.21867ZM19.699 16.9094H18.6685L19.5037 18.3138C19.8535 18.9017 19.6452 19.6563 19.0396 19.9958C18.8441 20.1053 18.6271 20.1613 18.4074 20.1613C18.2972 20.1613 18.1864 20.1473 18.077 20.1188C17.7497 20.0336 17.4762 19.8299 17.3068 19.545L12.9028 12.14L14.3674 9.67742L17.2039 14.4468H19.699C20.3984 14.4468 20.9673 14.9991 20.9673 15.6781C20.9673 16.357 20.3984 16.9094 19.699 16.9094Z" fill="#1C1C1D"/>
</svg>

<svg width="25" height="25" fill="none" xmlns="http://www.w3.org/2000/svg"><path fill-rule="evenodd" clip-rule="evenodd" d="M19.873 0H5.127A5.133 5.133 0 000 5.127v14.746C0 22.7 2.3 25 5.127 25h14.746C22.7 25 25 22.7 25 19.873V5.127C25 2.3 22.7 0 19.873 0zM7.925 19.504a1.21 1.21 0 01-1.06.657 1.15 1.15 0 01-.61-.176c-.583-.362-.783-1.168-.446-1.795l.24-.448h2.822l-.946 1.762zM5.22 16.935a1.192 1.192 0 01-1.186-1.196c0-.66.532-1.196 1.186-1.196h2.33l3.2-5.59-.867-1.514a1.203 1.203 0 01.434-1.634 1.182 1.182 0 011.62.438l.183.319.182-.319a1.182 1.182 0 012.173.288c.082.309.04.631-.119.908l-4.067 7.104h2.566l1.369 2.393H5.219zm14.48-.026h-1.03l.835 1.405c.35.588.141 1.342-.464 1.682a1.291 1.291 0 01-.963.123 1.256 1.256 0 01-.77-.574l-4.404-7.405 1.464-2.463 2.837 4.77H19.7c.7 0 1.268.552 1.268 1.231s-.569 1.231-1.268 1.231z" fill="#1C1C1D"/></svg>
